X:144
M:4/4
L:1/8
K:D
| dBgB dBAG | gabg aged | BGGG DGGG | B/c/d BG AGED | 
dBgB dBAG | gabg aged | BG G/G/G DG G/G/G | BdBG AGED :|| 

